X: 2665
T: Bank Of Ireland, The
R: reel
M: 4/4
K: Dmixolydian
AB|:"Am"c2AB cBAG|"Em"EGDG EGAB|"Am"c2AB cBAG|"D"Add^c dfed|
"Am"cAAB cABG|"Em"EGDG EGAB|"Am"cAAB cABG|1 "D"Add^c d2 AB:|2 "D"Add^c d3e||
K:D
|:"D"f2fd "A7"e2fe|"D"dfed "A7"cAAc|"D"fefd "A7"efge|afge "D"d2cd|
"Am"eaag "Em"efge|"D"dfed "Am"=cAGB|"D"Addc defg|1 "A"afge "D"d3e:|2 "A"afge "D"d4||

